!!!COM: Robert Schumann
!!!CNT: Deutsch
!!!TXO: Deutsch
!!!OTL: "Fru2hlingslust"
!!!LYR: Heyse
!!!OPR: Fu2nf heitere Gesa2nge
!!!OPS: Op. 125
!!!ONM: No. 5
!!!ENC: Leigh VanHandel
!!!YOR: Schumann Lieder - Max Friedlaender, ed.,
!!!YOR: New York: C. F. Peters, Vol. 3
!!!ODT: 1851/
**kern	**silbe
*staff1	*
*clefG2	*
*k[f#c#]	*
*M6/8	*
*MM[Lebhaft, heiter]	*
=4	=4
4r	.
8r	.
{4.a	{Nun
=5	=5
8.g#	ste-
16g#	-hen
8g#	die
8dd	Ro-
8cc#	-sen
8b	in
=6	=6
4.a	Blu2-
4f#}	-te,}
{8a	{da
=7	=7
4dd	wirft
8a	die
8.f#	Lie-
16f#	-be
8a	ein
=8	=8
4dd	Netz-
8a	lein
4f#}	aus,}
{8a	{du
=9	=9
4g#	schwan-
8g#	-ker,
8.dd	lo-
16cc#	|
8b	-ser
=10	=10
4.a	Fal-
4f#}	-ter,}
{8a	{du
=11	=11
4dd	hilfst
8cc#	dir
8.f#	nim-
16f#	-mer
8cc#	her-
=12	=12
[4.a	-aus.
4a]}	|}
{8a	{Und
=13	=13
4ccn	wenn
8b	ich
8.a	wa2-
16a	-re
8g	ge-
=14	=14
4.e#	-fan-
4f#}	-gen}
{8a	{in
=15	=15
4ccn	die-
8a	-ser
4ee	jun-
8cc	-gen
=16	=16
4e	Ro-
8f#	-sen-
4g}	-zeit,}
{8g#	{und
=17	=17
4a	wa2r's
8a	die
4dd	Haft
8g	der
=18	=18
4g	Lie-
8f#}	-be,}
8r	.
8r	.
{8e	{ich
=19	=19
8.e	mu2ss-
16e	-te
8e	ver-
8cc#	-ge-
8b	-hen
8b	vor
=20	=10
4.e}	Leid.}
8r	.
8r	.
{8a	{Ich
=21	=21
4g#	mag
8g#	nicht
8dd	se-
8cc#	-hen
8b	und
=22	=22
4.a	sor-
4f#}	-gen;}
{8a	{durch
=23	=23
8.dd	blu2-
16dd	-hen-
8a	-de
4f#	Wa2l-
8a	-der
=24	=24
8dd	schweift
8ee	|
8a	mein
4f#}	Lauf.}
8r	.
=25	=25
4r	.
8r	.
4r	.
{8cc#	{Die
=26	=26
8.dd	lu-
16ff#	-sti-
8a#	-gen
8b	Lie-
8an	-der
8r	.
=27	=27
8.e	flie-
16g	|
8b	-gen
8ee	bis
8ff#	in
8gg	die
=28	=28
8.gg	Wip-
16cc#	-fel
8cc#	hin-
4.dd}	-auf.}
==	==
*-	*-
